views/1/public/assets/exchange.svg

<svg fill="none" height="79" viewBox="0 0 79 79" width="79" xmlns="http://www.w3.org/2000/svg" xmlns:xlink="http://www.w3.org/1999/xlink"><filter id="a" color-interpolation-filters="sRGB" height="85" width="85" x="-3" y="-3"><feFlood flood-opacity="0" result="BackgroundImageFix"/><feBlend in="SourceGraphic" in2="BackgroundImageFix" mode="normal" result="shape"/><feGaussianBlur result="effect1_foregroundBlur_203_80" stdDeviation="15"/></filter><clipPath id="b"><path d="m0 0h79v79h-79z"/></clipPath><mask id="c" height="79" maskUnits="userSpaceOnUse" width="79" x="0" y="0"><path d="m79 0h-79v79h79z" fill="#fff"/></mask><g clip-path="url(#b)"><g mask="url(#c)"><path d="m39.5 79c21.8152 0 39.5-17.6848 39.5-39.5s-17.6848-39.5-39.5-39.5-39.5 17.6848-39.5 39.5 17.6848 39.5 39.5 39.5z" fill="#fff" fill-opacity=".01"/><g filter="url(#a)"><circle cx="39.5" cy="39.5" fill="#fb7e50" r="12.5"/></g><path d="m79 39.5c0-21.8152-17.6848-39.5-39.5-39.5s-39.5 17.6848-39.5 39.5 17.6848 39.5 39.5 39.5 39.5-17.6848 39.5-39.5z" fill="#fff" fill-opacity=".06"/><path clip-rule="evenodd" d="m42.8223 25.4375c-.8285 0-1.5.6716-1.5 1.5v5.625h-6.8125c-.8285 0-1.5.6716-1.5 1.5v5.625h-6.8125c-.8285 0-1.5.6716-1.5 1.5v9.1875h-.875c-.8285 0-1.5.6716-1.5 1.5s.6715 1.5 1.5 1.5h2.375 8.3125 8.3125 8.3125 2.375c.8284 0 1.5-.6716 1.5-1.5s-.6716-1.5-1.5-1.5h-.875v-23.4375c0-.8284-.6716-1.5-1.5-1.5zm6.8125 24.9375v-21.9375h-5.3125v5.625 16.3125zm-8.3125 0v-14.8125h-5.3125v5.625 9.1875zm-13.625-7.6875h5.3125v7.6875h-5.3125z" fill="#fb7e50" fill-rule="evenodd"/></g></g></svg>

<?xml version="1.0" encoding="UTF-8"?> <svg xmlns="http://www.w3.org/2000/svg" width="79" height="79" viewBox="0 0 79 79" fill="none"><g clip-path="url(#clip0_203_80)"><mask id="mask0_203_80" style="mask-type:luminance" maskUnits="userSpaceOnUse" x="0" y="0" width="79" height="79"><path d="M79 0H0V79H79V0Z" fill="white"></path></mask><g mask="url(#mask0_203_80)"><path d="M39.5 79C61.3152 79 79 61.3152 79 39.5C79 17.6848 61.3152 0 39.5 0C17.6848 0 0 17.6848 0 39.5C0 61.3152 17.6848 79 39.5 79Z" fill="white" fill-opacity="0.01"></path><g filter="url(#filter0_f_203_80)"><circle cx="39.5" cy="39.5" r="12.5" fill="#FB7E50"></circle></g><path d="M79 39.5C79 17.6848 61.3152 0 39.5 0C17.6848 0 0 17.6848 0 39.5C0 61.3152 17.6848 79 39.5 79C61.3152 79 79 61.3152 79 39.5Z" fill="white" fill-opacity="0.06"></path><path fill-rule="evenodd" clip-rule="evenodd" d="M42.8223 25.4375C41.9938 25.4375 41.3223 26.1091 41.3223 26.9375V32.5625H34.5098C33.6813 32.5625 33.0098 33.2341 33.0098 34.0625V39.6875H26.1973C25.3688 39.6875 24.6973 40.3591 24.6973 41.1875V50.375H23.8223C22.9938 50.375 22.3223 51.0466 22.3223 51.875C22.3223 52.7034 22.9938 53.375 23.8223 53.375H26.1973H34.5098H42.8223H51.1348H53.5098C54.3382 53.375 55.0098 52.7034 55.0098 51.875C55.0098 51.0466 54.3382 50.375 53.5098 50.375H52.6348V26.9375C52.6348 26.1091 51.9632 25.4375 51.1348 25.4375H42.8223ZM49.6348 50.375V28.4375H44.3223V34.0625V50.375H49.6348ZM41.3223 50.375V35.5625H36.0098V41.1875V50.375H41.3223ZM27.6973 42.6875H33.0098V50.375H27.6973V42.6875Z" fill="#FB7E50"></path></g></g><defs><filter id="filter0_f_203_80" x="-3" y="-3" width="85" height="85" color-interpolation-filters="sRGB"><feFlood flood-opacity="0" result="BackgroundImageFix"></feFlood><feBlend mode="normal" in="SourceGraphic" in2="BackgroundImageFix" result="shape"></feBlend><feGaussianBlur stdDeviation="15" result="effect1_foregroundBlur_203_80"></feGaussianBlur></filter><clipPath id="clip0_203_80"><rect width="79" height="79" fill="white"></rect></clipPath></defs></svg>
